public/Level.svg

<svg width="282" height="297" viewBox="0 0 282 297" fill="none" xmlns="http://www.w3.org/2000/svg">
<rect y="5.99988" width="221" height="291" rx="15" fill="#19101B"/>
<path d="M206 5.99951C213.611 5.99951 219.897 11.6685 220.869 19.0142L128.383 111.501C126.283 113.601 124.854 116.276 124.276 119.188L116.226 159.745C114.146 170.225 123.38 179.458 133.86 177.378L174.418 169.329C177.33 168.751 180.005 167.321 182.104 165.222L221 126.327V282C221 290.284 214.284 297 206 297H14.9998C6.71563 296.999 -0.000183105 290.284 -0.000183105 282V20.9995C-7.23219e-05 12.7154 6.7157 5.99961 14.9998 5.99951H206ZM31.7068 223C26.8984 223 22.9998 226.898 22.9998 231.707V263.293C22.9998 268.102 26.8984 272 31.7068 272H189.294C194.102 272 198 268.102 198 263.293V231.707C198 226.898 194.102 223.001 189.294 223H31.7068ZM31.7068 185C26.8984 185 22.9998 188.898 22.9998 193.707V202.293C22.9998 207.102 26.8984 211 31.7068 211H189.294C194.102 211 198 207.102 198 202.293V193.707C198 188.898 194.102 185.001 189.294 185H31.7068ZM223.277 16.6069C229.135 10.7491 238.633 10.7491 244.491 16.6069L276.999 49.1147C282.856 54.9726 282.856 64.4699 276.999 70.3276L221 126.327V20.9995C221 20.3264 220.955 19.6638 220.869 19.0142L223.277 16.6069ZM31.0164 38.2329C29.9172 38.233 28.9726 38.6421 28.1834 39.4595C27.3944 40.2768 26.9998 41.2353 26.9998 42.3345V94.8892C26.9999 95.9882 27.3945 96.9469 28.1834 97.7642C28.9726 98.5533 29.9172 98.9487 31.0164 98.9487H38.9656C40.0646 98.9487 40.9948 98.5817 41.7557 97.8491C42.5447 97.0882 42.9401 96.158 42.9402 95.0591V74.5103H52.0301C54.5669 74.5103 56.7378 75.2428 58.5418 76.7085C60.3456 78.146 62.1353 80.3024 63.9109 83.1772L71.3524 94.9741C72.057 96.0733 73.0431 97.018 74.3113 97.8071C74.4056 97.8637 74.5002 97.9178 74.5936 97.9702C74.2683 97.369 74.0303 96.6841 74.0193 95.938L74.0184 95.8735L74.0213 95.8091C74.0465 95.2387 74.1076 94.6886 74.2186 94.1733L74.2264 94.1392L74.2342 94.1069L78.2645 77.8589C76.8143 75.6858 75.1454 73.667 73.2557 71.8042C71.3108 69.8593 69.407 68.6891 67.5467 68.2944C70.1962 67.6462 72.3386 66.533 73.9734 64.9546C75.6364 63.3762 77.1301 61.3747 78.4549 58.9507L87.6307 42.3345C88.1097 41.4328 88.3493 40.6575 88.3494 40.0093C88.3493 38.8257 87.6728 38.233 86.3201 38.2329H76.5535C73.9885 38.2611 71.9586 39.6286 70.4647 42.3345L63.9109 54.0044C62.2199 57.0199 60.4301 59.2042 58.5418 60.5571C56.6815 61.9101 54.5106 62.5874 52.0301 62.5874H42.9402V42.3345C42.9402 41.2353 42.5448 40.2769 41.7557 39.4595C40.9947 38.6422 40.0648 38.233 38.9656 38.2329H31.0164ZM114.216 37.3335C98.3769 37.5937 89.0998 43.2274 86.3856 54.2329L76.3631 94.6353C76.284 95.0028 76.2339 95.4264 76.2127 95.9058C76.2197 96.3849 76.4683 96.9453 76.9568 97.5864C77.445 98.1993 78.2387 98.498 79.3377 98.4819L87.6658 98.3599C88.765 98.3438 89.8034 97.9616 90.7791 97.2144C91.7541 96.439 92.3746 95.4715 92.6395 94.312L95.3152 83.6167L125.374 83.1772L125.529 93.8306C125.546 94.9861 125.927 95.9397 126.671 96.6899C127.442 97.4115 128.407 97.7635 129.562 97.7466L137.51 97.6294C138.609 97.6133 139.548 97.2339 140.326 96.4897C141.104 95.7172 141.486 94.7803 141.47 93.6812L140.696 40.8784C140.681 39.836 140.315 38.9256 139.599 38.147C138.911 37.3678 138.045 36.9853 137.003 37.0005L114.216 37.3335ZM125.199 71.2124L98.2684 71.6069L101.79 57.9819C102.457 55.3788 103.78 53.3017 105.759 51.7505C107.765 50.1707 110.121 49.3604 112.827 49.3208L124.876 49.145L125.199 71.2124Z" fill="url(#paint0_linear_241_434)"/>
<defs>
<linearGradient id="paint0_linear_241_434" x1="-8.3909" y1="20.1039" x2="205.363" y2="261.05" gradientUnits="userSpaceOnUse">
<stop stop-color="#FFC561"/>
<stop offset="1" stop-color="#B444FF"/>
</linearGradient>
</defs>
</svg>

<svg xmlns="http://www.w3.org/2000/svg" fill="none" viewBox="0 0 282 297"><rect width="221" height="291" y="6" fill="#19101B" rx="15"/><path fill="url(#a)" d="M206 6a15 15 0 0 1 14.9 13l-92.5 92.5a15 15 0 0 0-4.1 7.7l-8 40.5a15 15 0 0 0 17.6 17.7l40.5-8c3-.6 5.6-2 7.7-4.2l38.9-38.9V282a15 15 0 0 1-15 15H15a15 15 0 0 1-15-15V21A15 15 0 0 1 15 6h191ZM31.7 223a8.7 8.7 0 0 0-8.7 8.7v31.6c0 4.8 3.9 8.7 8.7 8.7h157.6c4.8 0 8.7-3.9 8.7-8.7v-31.6c0-4.8-3.9-8.7-8.7-8.7H31.7Zm0-38a8.7 8.7 0 0 0-8.7 8.7v8.6c0 4.8 3.9 8.7 8.7 8.7h157.6c4.8 0 8.7-3.9 8.7-8.7v-8.6c0-4.8-3.9-8.7-8.7-8.7H31.7ZM223.3 16.6a15 15 0 0 1 21.2 0L277 49.1a15 15 0 0 1 0 21.2l-56 56V21l-.1-2 2.4-2.4ZM31 38.2c-1 0-2 .4-2.8 1.3a4 4 0 0 0-1.2 2.8V95c0 1 .4 2 1.2 2.9.8.8 1.7 1.1 2.8 1.1h8c1 0 2-.3 2.8-1 .7-.8 1.1-1.7 1.1-2.8V74.5H52c2.6 0 4.7.7 6.5 2.2a25 25 0 0 1 5.4 6.5L71.4 95a9.2 9.2 0 0 0 3.2 3c-.3-.6-.6-1.3-.6-2v-.1l.2-1.7 4-16.3a38.5 38.5 0 0 0-5-6.1c-1.9-2-3.8-3.1-5.7-3.5 2.7-.7 4.8-1.8 6.5-3.3 1.6-1.6 3.1-3.6 4.5-6l9.1-16.7c.5-.9.7-1.6.7-2.3 0-1.2-.6-1.8-2-1.8h-9.7c-2.6 0-4.6 1.4-6.1 4.1L63.9 54c-1.7 3-3.5 5.2-5.4 6.6-1.8 1.3-4 2-6.5 2h-9V42.3a4 4 0 0 0-1.2-2.8 3.7 3.7 0 0 0-2.8-1.3h-8Zm83.2-.9c-15.8.3-25.1 6-27.8 17l-10 40.3-.2 1.3c0 .5.3 1 .8 1.7.4.6 1.2.9 2.3.9l8.4-.1c1 0 2.1-.4 3-1.2a5 5 0 0 0 2-2.9l2.6-10.7 30-.4.2 10.6a4 4 0 0 0 1.2 2.9 4 4 0 0 0 2.9 1h8a4 4 0 0 0 2.7-1.2c.8-.8 1.2-1.7 1.2-2.8l-.8-52.8c0-1-.4-2-1.1-2.8A3.2 3.2 0 0 0 137 37l-22.8.3Zm11 34-27 .3 3.6-13.6a11.2 11.2 0 0 1 11-8.7l12-.2.4 22.1Z"/><defs><linearGradient id="a" x1="-8.4" x2="205.4" y1="20.1" y2="261.1" gradientUnits="userSpaceOnUse"><stop stop-color="#FFC561"/><stop offset="1" stop-color="#B444FF"/></linearGradient></defs></svg>
